icons/evolvere-blue-folders-flat-vivid-dark-fallback/apps/64/radiotray.svg

<?xml version="1.0" encoding="UTF-8" standalone="no"?>
<!-- Created with Inkscape (http://www.inkscape.org/) -->

<svg
   xmlns:dc="http://purl.org/dc/elements/1.1/"
   xmlns:cc="http://creativecommons.org/ns#"
   xmlns:rdf="http://www.w3.org/1999/02/22-rdf-syntax-ns#"
   xmlns:svg="http://www.w3.org/2000/svg"
   xmlns="http://www.w3.org/2000/svg"
   xmlns:sodipodi="http://sodipodi.sourceforge.net/DTD/sodipodi-0.dtd"
   xmlns:inkscape="http://www.inkscape.org/namespaces/inkscape"
   width="64"
   height="64"
   id="svg13094"
   version="1.1"
   inkscape:version="0.48.4 r9939"
   sodipodi:docname="radiotray.svg">
  <sodipodi:namedview
     id="base"
     pagecolor="#ffffff"
     bordercolor="#666666"
     borderopacity="1.0"
     inkscape:pageopacity="0"
     inkscape:pageshadow="2"
     inkscape:zoom="11.313709"
     inkscape:cx="38.453951"
     inkscape:cy="33.707893"
     inkscape:document-units="px"
     inkscape:current-layer="svg13094"
     showgrid="true"
     inkscape:snap-bbox="true"
     inkscape:bbox-paths="true"
     inkscape:bbox-nodes="true"
     inkscape:snap-bbox-edge-midpoints="true"
     inkscape:snap-bbox-midpoints="true"
     inkscape:object-paths="true"
     inkscape:snap-intersection-paths="true"
     inkscape:object-nodes="true"
     inkscape:snap-smooth-nodes="true"
     inkscape:snap-midpoints="true"
     inkscape:snap-object-midpoints="true"
     inkscape:snap-center="true"
     showguides="true"
     inkscape:guide-bbox="true"
     inkscape:window-width="1920"
     inkscape:window-height="1025"
     inkscape:window-x="-2"
     inkscape:window-y="32"
     inkscape:window-maximized="1"
     inkscape:snap-global="true"
     fit-margin-top="0"
     fit-margin-left="0"
     fit-margin-right="0"
     fit-margin-bottom="0"
     showborder="true"
     inkscape:showpageshadow="false"
     inkscape:snap-page="true">
    <inkscape:grid
       type="xygrid"
       id="grid3075"
       empspacing="5"
       visible="true"
       enabled="true"
       snapvisiblegridlinesonly="true"
       originx="1.6362304e-08px"
       originy="18px" />
  </sodipodi:namedview>
  <defs
     id="defs13096" />
  <metadata
     id="metadata13099">
    <rdf:RDF>
      <cc:Work
         rdf:about="">
        <dc:format>image/svg+xml</dc:format>
        <dc:type
           rdf:resource="http://purl.org/dc/dcmitype/StillImage" />
        <dc:title />
      </cc:Work>
    </rdf:RDF>
  </metadata>
  <path
     style="color:#000000;fill:#1f86d7;fill-opacity:1;fill-rule:nonzero;stroke:none;stroke-width:2.28571415000000000;marker:none;visibility:visible;display:inline;overflow:visible;enable-background:accumulate"
     d="M 0 4 L 0 34 L 0 62 L 2 64 L 32 64 L 62 64 L 64 62 L 64 34 L 64 4 L 32 4 L 0 4 z "
     id="path6498" />
  <path
     style="color:#000000;fill:#68caf9;fill-opacity:1;fill-rule:nonzero;stroke:none;marker:none;visibility:visible;display:inline;overflow:visible;enable-background:accumulate;stroke-width:2.28571415000000000"
     d="M 2 0 L 0 1 L 0 4 L 32 4 L 64 4 L 64 1 L 62 0 L 32 0 L 2 0 z "
     id="path6502" />
  <path
     style="fill:#7dd2fa;fill-opacity:1;fill-rule:nonzero"
     d="M 0,3 0,6 2,4 z"
     id="path4298"
     inkscape:connector-curvature="0"
     sodipodi:nodetypes="cccc" />
  <path
     d="M 64,6 62,4 64,3 z"
     id="path3028"
     style="fill:#41a6e7;fill-opacity:1"
     inkscape:connector-curvature="0" />
  <g
     id="g3043"
     inkscape:export-filename="folder.png"
     inkscape:export-xdpi="90"
     inkscape:export-ydpi="90"
     transform="translate(-0.62500009,0.082283)" />
  <g
     id="scalable"
     transform="matrix(1.0385892,0,0,1.0385892,1214.7222,1878.8121)"
     inkscape:label="#g3701"
     style="fill:#ffffff" />
  <path
     style="color:#000000;fill:#dfeef8;fill-opacity:1;fill-rule:nonzero;stroke:none;stroke-width:1.50000000000000000;marker:none;visibility:visible;display:inline;overflow:visible;enable-background:accumulate"
     d="m 16.562508,15.56225 c -4.0717,4.071749 -6.5625,9.72425 -6.5625,15.9375 0,6.213251 2.4908,11.86575 6.5625,15.937499 l 3.75,-3.749999 c -3.12506,-3.125 -5.078125,-7.422 -5.078125,-12.1875 0,-4.7655 1.953065,-9.0625 5.078125,-12.187501 z m 31.875,0 -3.75,3.749999 c 3.12506,3.125001 5.078125,7.422001 5.078125,12.187501 0,4.7655 -1.953065,9.0625 -5.078125,12.1875 l 3.75,3.749999 c 4.0717,-4.071749 6.5625,-9.724248 6.5625,-15.937499 0,-6.21325 -2.4908,-11.865751 -6.5625,-15.9375 z m -25.3125,6.562499 c -2.38751,2.387502 -3.828126,5.722002 -3.828126,9.375001 0,3.653 1.440616,6.9875 3.828126,9.375 l 3.593751,-3.593749 c -1.482689,-1.48275 -2.421876,-3.508751 -2.421876,-5.781251 0,-2.2725 0.939187,-4.2985 2.421876,-5.78125 z m 18.75,0 -3.593751,3.593751 c 1.482689,1.48275 2.421876,3.50875 2.421876,5.78125 0,2.2725 -0.939187,4.298501 -2.421876,5.781251 l 3.593751,3.593749 c 2.38751,-2.3875 3.828126,-5.722 3.828126,-9.375 0,-3.652999 -1.440616,-6.987499 -3.828126,-9.375001 z m -9.375,4.375001 c -2.767517,0 -5,2.2325 -5,5 0,2.7675 2.232483,5 5,5 2.767517,0 5,-2.2325 5,-5 0,-2.7675 -2.232483,-5 -5,-5 z m -2.5,12.8125 L 30.000001,54 35,54 l 8e-6,-14.68775 c -0.793564,0.254751 -1.6218,0.39075 -2.5,0.39075 -0.8782,0 -1.706436,-0.135 -2.5,-0.39075 z"
     id="path3130"
     inkscape:connector-curvature="0"
     sodipodi:nodetypes="csccsccccsccsccsccsccccsccscsssssccccsc" />
</svg>

<svg xmlns="http://www.w3.org/2000/svg" viewBox="0 0 64 64"><g color="#000"><path d="m0 4v30 28l2 2h30 30l2-2v-28-30h-32-32" fill="#1f86d7"/><path d="m2 0l-2 1v3h32 32v-3l-2-1h-30-30" fill="#68caf9"/></g><path d="m0 3v3l2-2z" fill="#7dd2fa"/><path d="m64 6l-2-2 2-1z" fill="#41a6e7"/><path d="m16.563 15.562c-4.072 4.072-6.563 9.724-6.563 15.937 0 6.213 2.491 11.866 6.563 15.937l3.75-3.75c-3.125-3.125-5.078-7.422-5.078-12.188 0-4.765 1.953-9.06 5.078-12.188zm31.875 0l-3.75 3.75c3.125 3.125 5.078 7.422 5.078 12.188 0 4.766-1.953 9.06-5.078 12.188l3.75 3.75c4.072-4.072 6.563-9.724 6.563-15.937 0-6.213-2.491-11.866-6.563-15.938m-25.313 6.562c-2.388 2.388-3.828 5.722-3.828 9.375 0 3.653 1.441 6.987 3.828 9.375l3.594-3.594c-1.483-1.483-2.422-3.509-2.422-5.781 0-2.273.939-4.299 2.422-5.781zm18.75 0l-3.594 3.594c1.483 1.483 2.422 3.509 2.422 5.781 0 2.272-.939 4.299-2.422 5.781l3.594 3.594c2.388-2.388 3.828-5.722 3.828-9.375 0-3.653-1.441-6.987-3.828-9.375m-9.375 4.375c-2.768 0-5 2.232-5 5 0 2.768 2.232 5 5 5 2.768 0 5-2.233 5-5 0-2.767-2.232-5-5-5m-2.5 12.813v14.688h5v-14.688c-.794.255-1.622.391-2.5.391-.878 0-1.706-.135-2.5-.391" fill="#dfeef8" color="#000"/></svg>
